vendor/shopware/storefront/Resources/app/storefront/dist/assets/icon/solid/copy.svg

<svg xmlns="http://www.w3.org/2000/svg" width="16" height="16" viewBox="0 0 16 16">
  <path fill="#758CA3" fill-rule="evenodd" d="M10,4 L10,2 L2,2 L2,10 L4,10 L4,6 C4,4.8954305 4.8954305,4 6,4 L10,4 Z M12,4 L14,4 C15.1045695,4 16,4.8954305 16,6 L16,14 C16,15.1045695 15.1045695,16 14,16 L6,16 C4.8954305,16 4,15.1045695 4,14 L4,12 L2,12 C0.8954305,12 0,11.1045695 0,10 L0,2 C-2.22044605e-16,0.8954305 0.8954305,0 2,0 L10,0 C11.1045695,-2.22044605e-16 12,0.8954305 12,2 L12,4 Z M6,6 L6,14 L14,14 L14,6 L6,6 Z"/>
</svg>

<svg xmlns="http://www.w3.org/2000/svg" width="16" height="16" viewBox="0 0 16 16"><path fill="#758CA3" fill-rule="evenodd" d="M10 4V2H2v8h2V6c0-1.1046.8954-2 2-2h4zm2 0h2c1.1046 0 2 .8954 2 2v8c0 1.1046-.8954 2-2 2H6c-1.1046 0-2-.8954-2-2v-2H2c-1.1046 0-2-.8954-2-2V2C0 .8954.8954 0 2 0h8c1.1046 0 2 .8954 2 2v2zM6 6v8h8V6H6z"/></svg>
